Newaita-dark/.DP/22/teamviewer-indicator.svg

<svg xmlns="http://www.w3.org/2000/svg" xmlns:xlink="http://www.w3.org/1999/xlink" width="22px" height="22px" viewBox="0 0 22 22" version="1.1">
<g id="surface1">
<path style=" stroke:none;fill-rule:nonzero;fill:rgb(93.333334%,93.333334%,93.333334%);fill-opacity:1;" d="M 10.914062 2.898438 C 6.378906 2.898438 2.726562 6.550781 2.726562 11.085938 C 2.726562 15.621094 6.378906 19.273438 10.914062 19.273438 C 15.449219 19.273438 19.101562 15.621094 19.101562 11.085938 C 19.101562 6.550781 15.449219 2.898438 10.914062 2.898438 Z M 13.179688 7.898438 C 13.425781 7.898438 13.660156 7.996094 13.828125 8.171875 L 16.101562 10.445312 C 16.457031 10.800781 16.457031 11.375 16.101562 11.726562 L 13.828125 14 C 13.601562 14.234375 13.265625 14.328125 12.949219 14.242188 C 12.632812 14.160156 12.386719 13.914062 12.304688 13.601562 C 12.222656 13.285156 12.316406 12.949219 12.546875 12.71875 L 13.28125 11.988281 C 13.25 11.992188 13.21875 11.992188 13.191406 11.992188 L 8.550781 11.992188 L 9.28125 12.71875 C 9.515625 12.949219 9.609375 13.285156 9.523438 13.601562 C 9.441406 13.914062 9.195312 14.160156 8.878906 14.242188 C 8.566406 14.328125 8.226562 14.234375 8 14 L 5.726562 11.726562 C 5.371094 11.375 5.371094 10.800781 5.726562 10.445312 L 8 8.171875 C 8.164062 8.003906 8.386719 7.90625 8.625 7.898438 C 8.996094 7.886719 9.339844 8.105469 9.484375 8.449219 C 9.628906 8.792969 9.550781 9.195312 9.28125 9.453125 L 8.550781 10.183594 L 13.191406 10.183594 C 13.21875 10.183594 13.25 10.183594 13.28125 10.183594 L 12.546875 9.453125 C 12.285156 9.195312 12.203125 8.804688 12.339844 8.464844 C 12.480469 8.121094 12.8125 7.898438 13.179688 7.898438 Z M 14.101562 11.007812 C 14.109375 11.0625 14.109375 11.113281 14.105469 11.167969 L 14.183594 11.085938 Z M 14.101562 11.007812 "/>
</g>
</svg>

<svg xmlns="http://www.w3.org/2000/svg" width="22pt" height="22pt" viewBox="0 0 22 22"><path d="M10.914 2.902a8.164 8.164 0 0 0-8.184 8.184 8.167 8.167 0 0 0 8.184 8.187 8.17 8.17 0 0 0 8.188-8.187 8.167 8.167 0 0 0-8.188-8.184zm2.266 4.996c.246 0 .48.098.648.274l2.274 2.273a.903.903 0 0 1 0 1.282L13.828 14a.906.906 0 0 1-.879.246.91.91 0 0 1-.644-.644.906.906 0 0 1 .246-.88l.73-.734c-.031.004-.062.004-.094.004H8.556l.726.73a.895.895 0 0 1 .242.88.91.91 0 0 1-.644.644A.91.91 0 0 1 8 14l-2.273-2.273a.91.91 0 0 1 0-1.282L8 8.172a.912.912 0 0 1 .625-.274.903.903 0 0 1 .86.551.908.908 0 0 1-.204 1.004l-.726.73h4.633a.377.377 0 0 1 .093.005l-.73-.735a.906.906 0 0 1 .629-1.555zm.922 3.11c.007.05.007.105.003.156l.079-.078zm0 0" fill="#bdbdbd"/></svg>
